X: 4
T: Eighth Of January
S: Lee Owens and Viola Ruth "American Square Dances of the West and Southwest"
R: reel
Z: 2010 John Chambers <jc:trillian.mit.edu>
M: 2/4
L: 1/16
K: C
|: "C"[e2e2](ef) e2e2 | "F"dedc A2((3ABc) | "G7"d2(de) d2(AB) | "C"cAGE C4 :|
"C"G2(GA) G2(EF) | GAGE "G7"D2(EF) | "C"G2(GA) G2(EF) | "G7"GFED "C"C2(EF) |
   G2(GA) G2(EF) | GAGE "G7"D2(EF) | "C"G2(GA) G2(EF) | "G7"GFED "C"C4 |]

%%sep 2 1 500

